flaticon/essential/key.svg

<svg xmlns="http://www.w3.org/2000/svg" width="32" height="32" viewBox="0 0 24 24">
    <path d="M 17.144531 0 C 13.363281 0 10.285156 3.078125 10.285156 6.855469 C 10.285156 8.265625 10.714844 9.574219 11.445312 10.664062 L 0.125 21.984375 C -0.0429688 22.148438 -0.0429688 22.421875 0.125 22.589844 C 0.210938 22.671875 0.320312 22.714844 0.429688 22.714844 C 0.539062 22.714844 0.648438 22.671875 0.730469 22.589844 L 2.570312 20.75 L 5.695312 23.875 C 5.78125 23.957031 5.890625 24 6 24 C 6.109375 24 6.21875 23.957031 6.304688 23.875 C 6.46875 23.707031 6.46875 23.4375 6.304688 23.269531 L 3.175781 20.144531 L 4.714844 18.605469 L 6.984375 20.875 C 7.066406 20.957031 7.175781 21 7.285156 21 C 7.394531 21 7.503906 20.957031 7.589844 20.875 C 7.757812 20.707031 7.757812 20.4375 7.589844 20.269531 L 5.320312 18 L 6.855469 16.464844 L 9.984375 19.589844 C 10.066406 19.671875 10.175781 19.714844 10.285156 19.714844 C 10.394531 19.714844 10.503906 19.671875 10.589844 19.589844 C 10.757812 19.421875 10.757812 19.148438 10.589844 18.984375 L 7.464844 15.855469 L 11.972656 11.347656 C 13.230469 12.792969 15.078125 13.714844 17.144531 13.714844 C 20.921875 13.714844 24 10.636719 24 6.855469 C 24 3.078125 20.921875 0 17.144531 0 Z M 17.144531 12.855469 C 13.835938 12.855469 11.144531 10.164062 11.144531 6.855469 C 11.144531 3.546875 13.835938 0.855469 17.144531 0.855469 C 20.453125 0.855469 23.144531 3.546875 23.144531 6.855469 C 23.144531 10.164062 20.453125 12.855469 17.144531 12.855469 Z M 17.144531 12.855469"/>
</svg>

<svg xmlns="http://www.w3.org/2000/svg" width="32" height="32" viewBox="0 0 24 24">
    <path d="M17.145 0c-3.782 0-6.86 3.078-6.86 6.855 0 1.41.43 2.72 1.16 3.81L.125 21.984a.427.427 0 0 0 .305.73c.11 0 .218-.043.3-.125l1.84-1.84 3.125 3.125A.442.442 0 0 0 6 24c.11 0 .219-.043.305-.125a.434.434 0 0 0 0-.605l-3.13-3.125 1.54-1.54 2.27 2.27a.426.426 0 0 0 .605 0 .427.427 0 0 0 0-.605L5.32 18l1.535-1.535 3.13 3.125a.426.426 0 0 0 .605 0 .427.427 0 0 0 0-.606l-3.125-3.129 4.508-4.507a6.84 6.84 0 0 0 5.172 2.367c3.777 0 6.855-3.078 6.855-6.86C24 3.078 20.922 0 17.145 0zm0 12.855c-3.31 0-6-2.69-6-6 0-3.308 2.69-6 6-6 3.308 0 6 2.692 6 6 0 3.31-2.692 6-6 6zm0 0"/>
</svg>
